dist/assets/img/svg/google-pay.svg

<svg width="72" height="28" viewBox="0 0 72 28"  xmlns="http://www.w3.org/2000/svg">
<path d="M33.308 21.8733H30.6881V1.48731H37.6335C39.3937 1.48731 40.8947 2.07406 42.1228 3.24755C43.3781 4.42104 44.0058 5.85378 44.0058 7.54579C44.0058 9.27874 43.3781 10.7115 42.1228 11.8713C40.9084 13.0312 39.4074 13.6043 37.6335 13.6043H33.308V21.8733ZM33.308 3.99803V11.1072H37.6881C38.7251 11.1072 39.5984 10.7524 40.2807 10.0565C40.9766 9.36061 41.3313 8.5146 41.3313 7.55943C41.3313 6.61791 40.9766 5.78556 40.2807 5.08965C39.5984 4.36646 38.7388 4.01168 37.6881 4.01168H33.308V3.99803Z" />
<path d="M50.8558 7.4639C52.7935 7.4639 54.3217 7.98242 55.4406 9.01946C56.5595 10.0565 57.119 11.4756 57.119 13.2768V21.8733H54.6219V19.9356H54.5128C53.4348 21.5321 51.9884 22.3236 50.1872 22.3236C48.6453 22.3236 47.3627 21.8733 46.3256 20.959C45.2886 20.0448 44.7701 18.9122 44.7701 17.5477C44.7701 16.1013 45.3159 14.9551 46.4075 14.1091C47.4991 13.2495 48.9591 12.8265 50.774 12.8265C52.3295 12.8265 53.6122 13.113 54.6083 13.6861V13.0857C54.6083 12.1715 54.2535 11.4074 53.5303 10.766C52.8071 10.1247 51.9611 9.81088 50.9923 9.81088C49.5323 9.81088 48.3724 10.4249 47.5264 11.6666L45.2204 10.2202C46.4894 8.37813 48.3724 7.4639 50.8558 7.4639ZM47.4718 17.5887C47.4718 18.2709 47.7584 18.844 48.3451 19.2943C48.9182 19.7446 49.6005 19.9766 50.3783 19.9766C51.4835 19.9766 52.466 19.5672 53.3256 18.7485C54.1853 17.9298 54.6219 16.9746 54.6219 15.8694C53.8032 15.228 52.6707 14.9005 51.2106 14.9005C50.1463 14.9005 49.2593 15.1598 48.5498 15.6647C47.8266 16.1968 47.4718 16.8382 47.4718 17.5887Z" />
<path d="M71.3646 7.91421L62.6317 28H59.9299L63.1775 20.9727L57.4192 7.91421H60.271L64.4192 17.9298H64.4738L68.5128 7.91421H71.3646Z" />
<path d="M22.8872 11.9532C22.8872 11.0991 22.8108 10.2817 22.6688 9.49574H11.6872V13.9987L18.0117 14C17.7552 15.4983 16.9297 16.7755 15.6648 17.6269V20.5484H19.4295C21.6277 18.5139 22.8872 15.5065 22.8872 11.9532Z" />
<path d="M15.6661 17.6269C14.6182 18.3337 13.2687 18.7472 11.6899 18.7472C8.6402 18.7472 6.05306 16.6922 5.12655 13.9222H1.24312V16.9351C3.1671 20.753 7.12149 23.3729 11.6899 23.3729C14.8474 23.3729 17.5 22.3345 19.4308 20.547L15.6661 17.6269Z" />
<path d="M4.76082 11.6871C4.76082 10.9094 4.89044 10.1575 5.12651 9.45069V6.43782H1.24308C0.447561 8.01657 0 9.79864 0 11.6871C0 13.5756 0.448926 15.3577 1.24308 16.9365L5.12651 13.9236C4.89044 13.2168 4.76082 12.4649 4.76082 11.6871Z" />
<path d="M11.6899 4.62573C13.4133 4.62573 14.9566 5.2193 16.1751 6.37914L19.5113 3.04561C17.485 1.15848 14.8433 0 11.6899 0C7.12285 0 3.16705 2.61989 1.24308 6.43782L5.12651 9.45069C6.05302 6.68071 8.6402 4.62573 11.6899 4.62573Z" />
</svg>

<svg width="72" height="28" xmlns="http://www.w3.org/2000/svg"><path d="M33.308 21.873h-2.62V1.487h6.945c1.76 0 3.262.587 4.49 1.76 1.255 1.174 1.883 2.607 1.883 4.299 0 1.733-.628 3.165-1.883 4.325-1.215 1.16-2.716 1.733-4.49 1.733h-4.325v8.27zm0-17.875v7.11h4.38c1.037 0 1.91-.356 2.593-1.052.696-.695 1.05-1.541 1.05-2.497 0-.941-.354-1.773-1.05-2.47-.683-.723-1.542-1.077-2.593-1.077h-4.38v-.014zm17.548 3.466c1.938 0 3.466.518 4.585 1.555 1.118 1.037 1.678 2.457 1.678 4.258v8.596h-2.497v-1.937h-.11c-1.077 1.596-2.524 2.388-4.325 2.388-1.542 0-2.824-.45-3.861-1.365-1.037-.914-1.556-2.047-1.556-3.411 0-1.447.546-2.593 1.637-3.439 1.092-.86 2.552-1.283 4.367-1.283 1.556 0 2.838.287 3.834.86v-.6c0-.915-.354-1.679-1.078-2.32-.723-.641-1.569-.955-2.538-.955-1.46 0-2.62.614-3.466 1.856L45.22 10.22c1.27-1.842 3.152-2.756 5.636-2.756zm-3.384 10.125c0 .682.286 1.255.873 1.705.573.45 1.255.683 2.033.683 1.105 0 2.088-.41 2.948-1.229.86-.818 1.296-1.773 1.296-2.879-.819-.641-1.951-.969-3.411-.969-1.065 0-1.952.26-2.661.765-.723.532-1.078 1.173-1.078 1.924zm23.893-9.675L62.632 28H59.93l3.248-7.027-5.759-13.059h2.852l4.148 10.016h.055l4.039-10.016h2.852zm-48.478 4.039c0-.854-.076-1.671-.218-2.457H11.687v4.503l6.325.001a5.417 5.417 0 01-2.347 3.627v2.921h3.765c2.198-2.034 3.457-5.041 3.457-8.595z"/><path d="M15.666 17.627c-1.048.707-2.397 1.12-3.976 1.12-3.05 0-5.637-2.055-6.563-4.825H1.243v3.013a11.69 11.69 0 0010.447 6.438c3.157 0 5.81-1.039 7.74-2.826l-3.764-2.92z"/><path d="M4.76 11.687c0-.778.13-1.53.367-2.236V6.438H1.243A11.628 11.628 0 000 11.688c0 1.888.449 3.67 1.243 5.248l3.884-3.012a7.049 7.049 0 01-.366-2.237z"/><path d="M11.69 4.626c1.723 0 3.267.593 4.485 1.753l3.336-3.333C17.485 1.158 14.843 0 11.69 0 7.123 0 3.167 2.62 1.243 6.438L5.127 9.45c.926-2.77 3.513-4.825 6.563-4.825z"/></svg>
